X:474
T:Lochend Side
R:Reel
B:The Athole Collection
M:C|
L:1/8
K:G Minor
DGG^F G2GA|Bcdc BFFE|DGG^F G2 GA|BABc d2dc|Bbbd Bdfb|
FdcB AFFA|GBAc Bcdc|BGD^F G2GB||
Ggg^f g2ga|bfdg ^fgaf|dgga bga^f|dg/a/ b^f g2 gd|gbbd Bdgb|
FdcB AFFA|GBAc Bcdc|BGD^F G2 GB||

